local/share/icons/dracula-icons-main/scalable/apps/podcast-amarok.svg

<?xml version="1.0" encoding="UTF-8"?>
<svg xmlns="http://www.w3.org/2000/svg" xmlns:xlink="http://www.w3.org/1999/xlink" width="64" height="64" viewBox="0 0 64 64">
<defs>
<filter id="filter-remove-color" x="0%" y="0%" width="100%" height="100%">
<feColorMatrix color-interpolation-filters="sRGB" values="0 0 0 0 1 0 0 0 0 1 0 0 0 0 1 0 0 0 1 0" />
</filter>
<clipPath id="clip-0">
<path clip-rule="nonzero" d="M 5 4 L 60 4 L 60 59 L 5 59 Z M 5 4 "/>
</clipPath>
<clipPath id="clip-1">
<path clip-rule="nonzero" d="M 59.003906 31.507812 C 59.003906 46.421875 46.914062 58.511719 32 58.511719 C 17.089844 58.511719 5 46.421875 5 31.507812 C 5 16.597656 17.089844 4.507812 32 4.507812 C 46.914062 4.507812 59.003906 16.597656 59.003906 31.507812 Z M 59.003906 31.507812 "/>
</clipPath>
<mask id="mask-0">
<g filter="url(#filter-remove-color)">
<rect x="-6.4" y="-6.4" width="76.8" height="76.8" fill="rgb(0%, 0%, 0%)" fill-opacity="0.35"/>
</g>
</mask>
<clipPath id="clip-2">
<rect x="0" y="0" width="64" height="64"/>
</clipPath>
<g id="source-1427" clip-path="url(#clip-2)">
<path fill="none" stroke-width="0.127" stroke-linecap="butt" stroke-linejoin="miter" stroke="rgb(100%, 100%, 100%)" stroke-opacity="0.937" stroke-miterlimit="4" d="M 1.485276 287.740473 C 2.204804 287.895724 2.875567 288.365457 3.467709 289.720916 C 4.142453 291.264468 5.090877 291.950159 6.24033 292.003899 C 7.720188 292.073563 8.91343 290.777816 9.698641 289.618411 C 11.300909 287.256807 14.217833 287.482717 15.515571 288.367448 " transform="matrix(3.9251, 0, 0, 3.9251, -1.2322, -1101)"/>
</g>
<mask id="mask-1">
<g filter="url(#filter-remove-color)">
<rect x="-6.4" y="-6.4" width="76.8" height="76.8" fill="rgb(0%, 0%, 0%)" fill-opacity="0.35"/>
</g>
</mask>
<clipPath id="clip-3">
<rect x="0" y="0" width="64" height="64"/>
</clipPath>
<g id="source-1431" clip-path="url(#clip-3)">
<path fill="none" stroke-width="0.127" stroke-linecap="butt" stroke-linejoin="miter" stroke="rgb(100%, 100%, 100%)" stroke-opacity="0.937" stroke-miterlimit="4" d="M 1.492242 288.129595 C 2.386925 287.780281 3.575191 287.706636 4.365378 288.956604 C 5.086896 290.100086 5.940775 291.823769 8.413841 291.665532 C 9.89171 291.570988 11.369578 290.955956 12.131899 289.515906 C 12.661344 288.58241 13.391819 287.643939 14.424834 287.412058 C 14.80699 287.330452 15.079674 287.341399 15.401123 287.468784 " transform="matrix(3.9251, 0, 0, 3.9251, -1.2322, -1101)"/>
</g>
<mask id="mask-2">
<g filter="url(#filter-remove-color)">
<rect x="-6.4" y="-6.4" width="76.8" height="76.8" fill="rgb(0%, 0%, 0%)" fill-opacity="0.35"/>
</g>
</mask>
<clipPath id="clip-4">
<rect x="0" y="0" width="64" height="64"/>
</clipPath>
<g id="source-1435" clip-path="url(#clip-4)">
<path fill="none" stroke-width="0.127" stroke-linecap="butt" stroke-linejoin="miter" stroke="rgb(100%, 100%, 100%)" stroke-opacity="0.937" stroke-miterlimit="4" d="M 1.774878 290.250361 C 2.722306 289.805508 4.520628 289.296962 5.971626 289.719921 C 7.269364 290.099091 8.90945 291.567008 12.028399 291.223665 C 12.852422 291.134097 13.550056 290.661378 14.210867 289.759729 C 14.689557 289.107875 14.961246 288.740647 15.516566 288.593357 " transform="matrix(3.9251, 0, 0, 3.9251, -1.2322, -1101)"/>
</g>
</defs>
<path fill-rule="nonzero" fill="rgb(36.470588%, 40.784314%, 45.882353%)" fill-opacity="1" d="M 59 32 C 59 46.910156 46.910156 59 32 59 C 17.089844 59 5 46.910156 5 32 C 5 17.089844 17.089844 5 32 5 C 46.910156 5 59 17.089844 59 32 Z M 59 32 "/>
<path fill-rule="nonzero" fill="rgb(100%, 100%, 100%)" fill-opacity="1" d="M 32 20.039062 C 35.3125 20.039062 38 22.726562 38 26.039062 L 38 34.039062 C 38 37.355469 35.3125 40.039062 32 40.039062 C 28.6875 40.039062 26 37.355469 26 34.039062 L 26 26.039062 C 26 22.726562 28.6875 20.039062 32 20.039062 Z M 32 20.039062 "/>
<path fill-rule="nonzero" fill="rgb(100%, 100%, 100%)" fill-opacity="1" d="M 23.5 33.539062 C 23.367188 33.539062 23.238281 33.59375 23.144531 33.6875 C 23.050781 33.78125 23 33.90625 23 34.039062 C 23 34.0625 23.003906 34.082031 23.007812 34.101562 C 23.039062 39.046875 27.054688 43.035156 32 43.039062 C 36.949219 43.039062 40.96875 39.039062 40.996094 34.089844 C 40.996094 34.078125 40.996094 34.066406 40.996094 34.054688 C 40.996094 34.050781 40.996094 34.042969 40.996094 34.039062 C 40.996094 33.765625 40.773438 33.542969 40.496094 33.542969 C 40.222656 33.542969 40 33.765625 40 34.039062 L 39.996094 34.039062 C 40 38.457031 36.417969 42.039062 32 42.039062 C 27.582031 42.039062 24.003906 38.457031 24.003906 34.039062 L 23.996094 34.039062 C 23.996094 33.765625 23.773438 33.542969 23.5 33.542969 Z M 23.5 33.539062 "/>
<g clip-path="url(#clip-0)">
<g clip-path="url(#clip-1)">
<g mask="url(#mask-0)">
<use xlink:href="#source-1427"/>
</g>
<g mask="url(#mask-1)">
<use xlink:href="#source-1431"/>
</g>
<g mask="url(#mask-2)">
<use xlink:href="#source-1435"/>
</g>
</g>
</g>
</svg>

<svg width="64" height="64" version="1.1" viewBox="0 0 64 64" xmlns="http://www.w3.org/2000/svg">
 <defs>
  <clipPath id="a">
   <circle cx="8.467" cy="288.53" r="6.879" fill="#d86eb0" stroke-opacity=".039" stroke-width=".491" style="paint-order:stroke markers fill"/>
  </clipPath>
 </defs>
 <circle cx="32" cy="32" r="27" fill="#5d6875" style="paint-order:stroke markers fill"/>
 <rect x="26" y="20.04" width="12" height="20" rx="6" ry="6" fill="#fff" style="paint-order:stroke markers fill"/>
 <path d="m23.5 33.54a0.499 0.499 0 0 0-0.5 0.5 0.499 0.499 0 0 0 6e-3 0.062 9 9 0 0 0 8.994 8.938 9 9 0 0 0 8.996-8.95 0.499 0.499 0 0 0 2e-3 -0.036 9 9 0 0 0 0-0.014 0.499 0.499 0 0 0-0.5-0.498 0.499 0.499 0 0 0-0.498 0.498h-2e-3a7.998 7.998 0 0 1-7.998 8 7.998 7.998 0 0 1-7.996-8h-6e-3a0.499 0.499 0 0 0-0.498-0.498z" fill="#fff" style="paint-order:stroke markers fill"/>
 <g transform="matrix(3.9251,0,0,3.9251,-1.2322,-1101)" clip-path="url(#a)" fill="none" stroke="#fff" stroke-opacity=".937" stroke-width=".127">
  <path d="m1.4854 287.74c0.719 0.15538 1.3906 0.6252 1.9826 1.9807 0.674 1.544 1.623 2.229 2.772 2.283 1.48 0.07 2.673-1.226 3.459-2.385 1.602-2.362 4.5188-2.1357 5.8165-1.2509" opacity=".35"/>
  <path d="m1.4927 288.13c0.89388-0.34988 2.0828-0.42377 2.8723 0.82673 0.722 1.143 1.576 2.867 4.049 2.709 1.478-0.095 2.956-0.71 3.718-2.15 0.52913-0.93299 1.2601-1.8714 2.2929-2.1036 0.38219-0.0816 0.65524-0.0703 0.97604 0.0566" opacity=".35"/>
  <path d="m1.7748 290.25c0.94712-0.44412 2.7457-0.95337 4.1972-0.52987 1.297 0.379 2.937 1.847 6.056 1.504 0.824-0.09 1.522-0.563 2.183-1.464 0.4785-0.6525 0.75018-1.0197 1.3056-1.1669" opacity=".35"/>
 </g>
</svg>
